X: 4
M: 4/4
L: 1/4
K: C
|  [C4 E4 G4 _B4] | [C4 E4 G4 B4] | [C4 _E4 G4 _B4]  | [C4 E4 G4 _B4 d4]  | [C4 E4 G4 B4 d4] | [C4 _E4 G4 _B4 d4]  | [C4 _E4 G4 _B4 d4 f4]  ||
w: C7               Cmaj7           Cm7                C9                   Cmaj9              Cm9                   Cm11
